X: 22959
T: Lass O' Patie's Mill, The
R: reel
M: 4/4
K: Dmajor
A|:G/F/E/D/ FA d>e fA|B/c/d/c/ B/A/G/F/ F2EA|
G/F/E/D/ FA d>e fA|1 B/c/d/B/ c/d/e/f/ d2dA:|2 B/c/d/B/ c/d/e/f/ d2de/f/||
|:g/f/e/d/ cA d/c/d/e/ fA|B/c/d/c/ B/A/G/F/ F2EA|
G/F/E/D/ FA d>e fA|1 B/c/d/B/ c/d/e/f/ d2de/f/:|2 B/c/d/B/ c/d/e/f/ d2d||

